X:1
T:Jimmy's Return
T:Dunrobin Castle
I:linebreak $
L:1/8
Q:1/4=56
M:C|
K:D
R:reel
|: e |{/gfg} f2{/g} B{/d}c{/g} dB{/g}fB |{/g} c{/d}A{/g}ec ae{/g}c{/d}A |1 
{/gfg} f2{/g} B{/d}c{/g} dB{/g}fB |{/g} c{/d}A{/g}ec{/g} dB{/G}B :|2${/g} BcdB{/g} c{/G}d{/A}ea | 
{/fg} fd{/g}ec{/g} dB{/G}B |:{/d} c |{/g} Bafd{/g} BcdB |{/g} c{/d}A{/g}ec ae{/g}c{/d}A |1$ 
{/g} Bafd{/g} BcdB |{/g} c{/d}A{/g}ec{/g} dB{/G}B :|2{/g} Baga fg{/a}ef | 
{/g} df{/g}ec{/g} dB{/G}B |] 


